Arcticons/scalable/apps/exifthumbnailadder.svg

<svg viewBox="0 0 48 48" xmlns="http://www.w3.org/2000/svg">
 <defs>
  <style>.a{fill:none;stroke:#fff;stroke-linecap:round;stroke-linejoin:round;}</style>
 </defs>
 <path class="a" d="m19.4125 26.6771-4.3894 5.61-2.1957-2.7944-4.5793 5.7129h5.0558l6.7983 0.0373h5.73z"/>
 <path class="a" d="m8.7 7.98v4.2h-4.2a4.2 4.2 0 0 1 4.2-4.2z"/>
 <rect class="a" x="4.5" y="14.94" width="4.2" height="4.2"/>
 <path class="a" d="m39.3 7.98a4.2 4.2 0 0 1 4.2 4.2h-4.2v-4.2z"/>
 <rect class="a" x="11.46" y="7.98" width="4.2" height="4.2"/>
 <rect class="a" x="18.42" y="7.98" width="4.2" height="4.2"/>
 <rect class="a" x="25.38" y="7.98" width="4.2" height="4.2"/>
 <rect class="a" x="32.34" y="7.98" width="4.2" height="4.2"/>
 <rect class="a" x="32.34" y="35.82" width="4.2" height="4.2"/>
 <path class="a" transform="translate(79.32 -3.48) rotate(90)" d="m39.3 35.82a4.2 4.2 0 0 1 4.2 4.2h-4.2v-4.2z"/>
 <rect class="a" transform="translate(58.44 -24.36) rotate(90)" x="39.3" y="14.94" width="4.2" height="4.2"/>
 <rect class="a" transform="translate(65.4 -17.4) rotate(90)" x="39.3" y="21.9" width="4.2" height="4.2"/>
 <rect class="a" transform="translate(72.36 -10.44) rotate(90)" x="39.3" y="28.86" width="4.2" height="4.2"/>
 <path class="a" d="m4.5 21.9h25.08v18.12h-20.88a4.2 4.2 0 0 1-4.2-4.2v-13.92z"/>
</svg>

<svg xmlns="http://www.w3.org/2000/svg" viewBox="0 0 48 48"><defs><style>.a{fill:none;stroke:#fff;stroke-linecap:round;stroke-linejoin:round;}</style></defs><path class="a" d="M19.4125,26.6771l-4.3894,5.61-2.1957-2.7944L8.2481,35.2056h5.0558l6.7983.0373h5.73Z"/><path class="a" d="M8.7,7.98h0a0,0,0,0,1,0,0v4.2a0,0,0,0,1,0,0H4.5a0,0,0,0,1,0,0v0a4.2,4.2,0,0,1,4.2-4.2Z"/><rect class="a" x="4.5" y="14.94" width="4.2" height="4.2"/><path class="a" d="M39.3,7.98h0a4.2,4.2,0,0,1,4.2,4.2v0a0,0,0,0,1,0,0H39.3a0,0,0,0,1,0,0V7.98A0,0,0,0,1,39.3,7.98Z"/><rect class="a" x="11.46" y="7.98" width="4.2" height="4.2"/><rect class="a" x="18.42" y="7.98" width="4.2" height="4.2"/><rect class="a" x="25.38" y="7.98" width="4.2" height="4.2"/><rect class="a" x="32.34" y="7.98" width="4.2" height="4.2"/><rect class="a" x="32.34" y="35.82" width="4.2" height="4.2"/><path class="a" d="M39.3,35.82h0a4.2,4.2,0,0,1,4.2,4.2v0a0,0,0,0,1,0,0H39.3a0,0,0,0,1,0,0v-4.2A0,0,0,0,1,39.3,35.82Z" transform="translate(79.32 -3.48) rotate(90)"/><rect class="a" x="39.3" y="14.94" width="4.2" height="4.2" transform="translate(58.44 -24.36) rotate(90)"/><rect class="a" x="39.3" y="21.9" width="4.2" height="4.2" transform="translate(65.4 -17.4) rotate(90)"/><rect class="a" x="39.3" y="28.86" width="4.2" height="4.2" transform="translate(72.36 -10.44) rotate(90)"/><path class="a" d="M4.5,21.9H29.58a0,0,0,0,1,0,0V40.02a0,0,0,0,1,0,0H8.7a4.2,4.2,0,0,1-4.2-4.2V21.9A0,0,0,0,1,4.5,21.9Z"/></svg>
